X: 7
T:Mr Beveridge's Maggot
% Nottingham Music Database
S:Playford
M:3/2
K:Gm
%%MIDI gchord fzczcz
P:A
"Gm"g4"D7"^f2=ef"Gm"g4|"Cm"d2cB"D7"ABc2"Gm"B2G2|"Gm"g4"F7"a2ga"Bb"b4|\
"Eb"f2ed"F7"cde2"Bb"d2B2:|
P:B
"Bb"d2f4f2f4|"F"c2e4e2e4|"Gm"B2d4d2d2cB|"Cm"ABc2"A7"B2AG"D7"^F2D2|
"D7"d2a4a2a2d2|"Gm"b2a2"D7"g2^f2"Gm"g4|"Bb"def2Bcd2"F"ABc2|\
"Cm"B2G2"D7"G2^F2"Gm"G4:|<end>
<start>
